X:875
T:Reel 875
M:4/4
K:Amin
L:1/8
E|A2EA CA,A,D|CA,A,C B,G,G,2|CA,CA, EA,CA,|B,G,DC B,G,G,B,|C2CA, CEA,C|CA,EA, DB,G,B,|CB,CB, CDE^F|GEDC B,G,G,|B|cBAB cAec|BAGA BcdB|cBAB cBAG|AEDC B,G,G,B|cBAG CDE^F|GEDC B,G,G,B,|A,B,CD EAAG|E^GAB cAA|
